!!!OTL: MEIN MAEDCHEN WARD MIR UNGETREU
!!!ARE: Europa, Mitteleuropa, Deutschland
!!!SCT: F0832
!!!YEM: Copyright 1995, estate of Helmut Schaffrath.
**kern
*ICvox
*Ivox
*M2/4
*k[b-e-a-]
*E-:
{8b-
=1
8b-
8b-
8g
8e-
=2
4a-
4f
=3
4e-
8r}
{8b-
=4
8.b-
16b-
8cc
8dd
=5
8ee-
8dd
8cc
16b-}
{16f
=6
8.b-
16b-
8cc
8dd
=7
8ee-
8dd
8cc
16b-}
{16ee-
=8
8cc
8b-
8a-
8g
=9
4f
4d
=10
4e-
8r}
==
!!!AGN: erzaehlendes Volks - Lied, Ballade
!!!ONB: ESAC (Essen Associative Code) Database: FINK
!!!AMT: simple duple
!!!AIN: vox
!!!EED: Helmut Schaffrath
!!!EEV: 1.0
*-
